mobile/24/svg/location-24.svg

<svg width="24" height="24" fill="none" xmlns="http://www.w3.org/2000/svg"><path fill-rule="evenodd" clip-rule="evenodd" d="M8.25 10.5c0 2.07 1.68 3.75 3.75 3.75 2.07 0 3.75-1.68 3.75-3.75 0-2.07-1.68-3.75-3.75-3.75-2.07 0-3.75 1.68-3.75 3.75zm1.75 0c0-1.1.9-2 2-2s2 .9 2 2-.9 2-2 2-2-.9-2-2z" fill="#000"/><path fill-rule="evenodd" clip-rule="evenodd" d="M10.31 21.34c.48.44 1.09.66 1.69.66.61 0 1.21-.22 1.69-.66 2.64-2.42 7.06-7.02 7.06-10.59C20.75 5.92 16.82 2 12 2s-8.75 3.93-8.75 8.75c0 3.57 4.42 8.17 7.06 10.59zM5 10.75a7.008 7.008 0 0 1 6.995-7 7.008 7.008 0 0 1 6.995 7c0 2.09-2.42 5.56-6.49 9.3-.29.26-.72.26-1.01 0C7.43 16.32 5 12.84 5 10.75z" fill="#000"/></svg>

<svg width="24" height="24" viewBox="0 0 24 24" fill="none" xmlns="http://www.w3.org/2000/svg">
<path fill-rule="evenodd" clip-rule="evenodd" d="M8.25 10.5C8.25 12.57 9.93 14.25 12 14.25C14.07 14.25 15.75 12.57 15.75 10.5C15.75 8.43 14.07 6.75 12 6.75C9.93 6.75 8.25 8.43 8.25 10.5ZM10 10.5C10 9.4 10.9 8.5 12 8.5C13.1 8.5 14 9.4 14 10.5C14 11.6 13.1 12.5 12 12.5C10.9 12.5 10 11.6 10 10.5Z" fill="black"/>
<path fill-rule="evenodd" clip-rule="evenodd" d="M10.31 21.34C10.79 21.78 11.4 22 12 22C12.61 22 13.21 21.78 13.69 21.34C16.33 18.92 20.75 14.32 20.75 10.75C20.75 5.92 16.82 2 12 2C7.18 2 3.25 5.93 3.25 10.75C3.25 14.32 7.67 18.92 10.31 21.34ZM5 10.75C5 6.89167 8.13729 3.75271 11.995 3.75C15.8527 3.75271 18.99 6.89167 18.99 10.75C18.99 12.84 16.57 16.31 12.5 20.05C12.21 20.31 11.78 20.31 11.49 20.05C7.43 16.32 5 12.84 5 10.75Z" fill="black"/>
</svg>
